X: 3
T: The Orphan
R: jig
M: 6/8
L: 1/8
K: Gmin
D|~G3 GFD|BAB cBc|d2 d cdc|BAB GFD|C2 G GFD|~B3 cBc|dcd cdc|1 BGF G2 D:|2 BGF G3||~g3 fdc|Bcd fdfgfd cBc|~d3 cBA|B2 A GFD|~B3 cBc|ded cdc|1 BGF G2 f:|2 BGF G2 D||


Tune 217	Setting 26007

